X:1
T:James Gibb editions
T:La mi sola - Ponce
%%score [ 1 2 3 4 ]
L:1/8
Q:1/4=91
M:2/2
K:C
V:1 treble nm="Soprano" snm="S"
V:2 treble nm="Alto" snm="A"
V:3 treble-8 nm="Tenor" snm="T"
V:4 bass nm="Bass" snm="B"
V:1
"^La mi sola, Laureola""^Juan Ponce\n(1480-1521)" z8 | z4 A4 | (E4 G4) | A4 z2 (G2 | (c4 B4)) | %5
w: |La|mi so-|la lau\-||
w: |He-|ri\- *|do de~~a-|que\- *|
 A2 (A4 ^G2) | A4 z4 | A4 E4 |[M:2/2] (G3 A Bc d2 | c4 A4) | (B3 A G4- | G2 ^FE F4) | G4 (E4- | %13
w: re- o\- *|la,|La mi|so\- * * * *|* la,|so\- * *||la, so\-|
w: lla ma\- *|no,|que~~en el|mun\- * * * *|* do|es * *||u- na|
 E2 DC D4) | E8- | E8 | (F4 E4 | F8) | E16!fine! |]: A4 A4 | (B2 c2 d4 | c4 B4) | c4 (A4- | %23
w: |la,||so\- *||la.|Yo~~el ca-|ti\- * *||vo le\-|
w: * * * so-|la,||so\- *||la,|Aun- que|mu\- * *||cho~~es- toy|
 A2 ^G^F) G4 | A8- | A8 | ^G16"^al Fine" :| %27
w: * * * ri-|a\-||no,|
w: * * * u-|fa\-||no,|
V:2
 z8 | z8 | E4 (B,4 | D4) E4 | z2 G2 (G3 F | (E2 D2) E4) | C8 | E4 C4 |[M:2/2] (C2 (C2 DEFD | %9
w: ||La mi|so- la|lau- re\- *|* * o-|la,|La mi|so- la, * * * *|
w: ||He- ri\-|* do|de~a- que- lla|ma\- * *|no,|que~~en el|mun\- * * * * *|
 E4 C4) | ((B,4) C4 | D6 C2) | B,4 C4 | A,8) | B,8 | z4 (C4 | D4 C4 | D8) | ^C16 |]: E4 (D3 (C) | %20
w: |so\- *||||la,|so\-|||la,|Yo~~el ca\- *|
w: * do|es *||u- na|so-|la,|so\-|||la,|Aun- que mu\-|
 (E4 F4 | E4) E4) | E8 | E8 | (C4 (F4- | F2 E2 C2 D2)) | E16 :| %27
w: ti\- *||vo|le-|ri- a\-||no,|
w: |* cho~~es-|toy|u-|fa\- *||no,|
V:3
 A4 E4 | G4 A4 | z2 G4 (B2 | A4) B4 | z2 e2 (d4 | (c2 A2)) B4 | A8 | z4 A4 | %8
w: La mi|so- la,|La mi|so- la|Lau- re\-|* * o-|la,|so-|
w: He- ri\-|* do,|He- ri\-|* do|de~~a- que-|lla * ma-|no,|que~~en|
[M:2/2][K:treble-8] E4 G4 | A8 | z4 (G4 | A8) | z4 (G4 | (A8- | A2 ^G^F)) G4 | A8 | A8- | A8 | %18
w: la, so-|la,|so-|la,|so\-|||la,|so\-||
w: el mun-|do|es||u-|na|* * * so-|la,|so\-||
 A16 |]: c4 A4 | (G4 A4- | A4 ^G4) | (A3 B) ((c4 | B2 A2) B4 | A8- | A8) | B16 :| %27
w: la,|Yo~~el ca-|ti\- *||vo * le\-|* * ri-|a\-||no,|
w: la,|Aun- que|mu- cho~~es|* toy|u\- * fa\-||||no,|
V:4
 z4 E,4 | (B,,4 D,4) | E,4 z4 | F,4 E,4 | z2 C,2 (G,4 | (A,2 F,2)) E,4 | A,,8 | A,,6 B,,2 | %8
w: La|mi so-|la,|so- la|lau- re\-|* * o-|la,|La mi|
w: He-|ri\- *|do,|heri- do|de~a- que-|lla * ma-|no,|que~en el|
[M:2/2] (C,4 B,,4 | A,,8 | E,8) | z4 D,4 | (E,4 C,4) | F,8 | E,8 | (A,,3 B,, C,2) A,,2 | %16
w: so\- *||la,|so-|la, *|so-|la,|so\- * * la,|
w: mun\- *||do|es|u- na|so-|la,|so\- * * la,|
 (D,4 A,,4 | D,8) | A,,16 |]: A,4 F,4 | ((E,4 D,4 | A,,4) E,4) | A,,8 | z4 E,4 | (F,4 (D,4- | %25
w: so\- *||la,|Yo~~el ca-|ti\- *||vo|Ie-|ri- a\-|
w: so\- *||la,|Aun- que|mu\- *|* cho~~es-|toy|u-|fa\- *|
 D,2 E,2 F,4)) | E,16 :| %27
w: |no,|
w: |no,|

